static/assets/images/exchanges/ascendex.svg

<svg width="377" height="256" viewBox="0 0 377 256" fill="none" xmlns="http://www.w3.org/2000/svg">
<path d="M361.54 1.93161C356.978 0.0174719 351.948 -0.488606 347.096 0.478459C342.244 1.44552 337.792 3.84151 334.313 7.35832L246.364 95.7149V146.862L340.987 51.9313V219.789H179.535L160.289 188.45L129.201 219.789H129.127L93.14 256H352.066C358.691 255.928 365.02 253.245 369.677 248.534C374.335 243.823 376.944 237.464 376.937 230.84V25.1061C376.937 14.894 370.916 5.81664 361.516 1.91928L361.54 1.93161Z" fill="#9756DD"/>
<path d="M87.1196 219.777L197.547 108.69V208.233H233.533V81.9384C233.533 71.7263 227.513 62.6489 218.112 58.7516C213.551 56.8417 208.522 56.339 203.672 57.3082C198.823 58.2775 194.374 60.6742 190.897 64.1906L0.292969 255.914H77.719L113.706 219.777H87.1196Z" fill="#9756DD"/>
</svg>

<svg xmlns="http://www.w3.org/2000/svg" fill="none" viewBox="0 0 377 256"><path fill="#9756DD" d="M361.54 1.932a24.8 24.8 0 0 0-27.227 5.426l-87.949 88.357v51.147l94.623-94.93v167.857H179.535l-19.246-31.339-31.088 31.339h-.074L93.14 256h258.926a25.15 25.15 0 0 0 17.611-7.466 25.13 25.13 0 0 0 7.26-17.694V25.106c0-10.212-6.021-19.29-15.421-23.187z"/><path fill="#9756DD" d="M87.12 219.777 197.547 108.69v99.543h35.986V81.938c0-10.212-6.02-19.29-15.421-23.186a24.8 24.8 0 0 0-27.215 5.439L.293 255.914h77.426l35.987-36.137z"/></svg>
